X:234
%%etbk:tnset id:73,pos:2,rep:3x,ant:
%%etbk:wsite http://www.thesession.org/tunes/display/1880
%%etbk:pldat 2016-09-07T16:32,2014-04-30T15:45,2014-04-08T17:42,2014-02-16T13:57,2013-11-24T14:18
T: Junior Crehan's
Z: Piano Box Version by Martin Fleischmann
H: Created 2013-02-19 /  Last Modified 2013-02-19
M: 6/8
L: 1/8
R: jig
K: Dmaj
|:!4!d|!2!B!1!A!3!F !5!AFE|!1!DDD !2!E!1!D!2!B,|!1!A,!2!B,!1!D !2!EDE|!3!F!1!EE E2!4!d|
!2!B!1!A!3!F !5!AFE|!1!D2D EDB,|!1!A,B,D EDE|!3!F!1!DD D2:|
|:!1!D!2!F!3!A !5!!3!d2!3!d|!4!ede !5!f!3!d!2!B|!3!def e!3!d!2!B|!1!ABd !4!e2!5!f|
!4!e!3!d!2!B !1!A!3!FE|!1!D !4!(3G!2!E!1!D E!1!D!2!B,|!1!A,B,!1!D !2!EDE|!3!F!1!DD D2:|


